X: 479
T: Bûselik Seyir
C: Erol Bingöl
O: Turkey
F: http://compmusic.upf.edu/node/140
N: buselik--seyir--sofyan--1--erol_bingol
N: makam= buselik
N: form= seyir
N: usul= sofyan = 4/4
M: 4/4
L: 1/16
K: C    
Q: 1/4=60
%%MIDI tuningsystem comma53
c4 B2c2 B4 A4  | B2c2 B2d2 c8  | d2e2 ^1/4f2a2 g4 =f4  | \
w:   |   |   | 
e3d c2d2 e8  | 
w:   | 
d2e2 d2f2 e4 d4  | d2c2 B2A2 G8  | c2B2 c2A2 e4 e4  | \
w:   |   |   | 
c2B2 A2^G2 A8  | 
w:   | 
|


